readme-assets/app-store/ios_white.svg

<?xml version="1.0" encoding="UTF-8"?>
<svg width="120px" height="40px" viewBox="0 0 120 40" version="1.1" xmlns="http://www.w3.org/2000/svg" xmlns:xlink="http://www.w3.org/1999/xlink">
    <!-- Generator: Sketch 51 (57462) - http://www.bohemiancoding.com/sketch -->
    <title>App Store/iOS White</title>
    <desc>Created with Sketch.</desc>
    <defs></defs>
    <g id="App-Store/iOS-White" stroke="none" stroke-width="1" fill="none" fill-rule="evenodd">
        <path d="M8.56297596,0.5 C5.92377779,0.5 4.80772866,0.715519029 3.65297491,1.33308809 C2.65156748,1.86864664 1.86864664,2.65156748 1.33308809,3.65297491 C0.715519029,4.80772866 0.5,5.92377779 0.5,8.56297596 L0.5,31.437024 C0.5,34.0762222 0.715519029,35.1922713 1.33308809,36.3470251 C1.86864664,37.3484325 2.65156748,38.1313534 3.65297491,38.6669119 C4.80772866,39.284481 5.92377779,39.5 8.56297596,39.5 L111.437024,39.5 C114.076222,39.5 115.192271,39.284481 116.347025,38.6669119 C117.348433,38.1313534 118.131353,37.3484325 118.666912,36.3470251 C119.284481,35.1922713 119.5,34.0762222 119.5,31.437024 L119.5,8.56297596 C119.5,5.92377779 119.284481,4.80772866 118.666912,3.65297491 C118.131353,2.65156748 117.348433,1.86864664 116.347025,1.33308809 C115.192271,0.715519029 114.076222,0.5 111.437024,0.5 L8.56297596,0.5 Z" id="Shape" stroke="#000000" fill="#FFFFFF"></path>
        <path d="M42.30178,27.13965 L37.56838,27.13965 L36.43166,30.4961 L34.42678,30.4961 L38.91018,18.0781 L40.99318,18.0781 L45.47658,30.4961 L43.43752,30.4961 L42.30178,27.13965 Z M38.05862,25.59082 L41.81062,25.59082 L39.961,20.14355 L39.9092,20.14355 L38.05862,25.59082 Z M55.1592,25.96973 C55.1592,28.78321 53.65334,30.59082 51.38088,30.59082 C50.2062653,30.6522646 49.0998424,30.0370307 48.53225,29.00682 L48.48925,29.00682 L48.48925,33.4912 L46.63085,33.4912 L46.63085,21.44238 L48.42968,21.44238 L48.42968,22.94824 L48.46386,22.94824 C49.0566683,21.9244879 50.1642843,21.3095188 51.34667,21.34765 C53.64455,21.34766 55.1592,23.16406 55.1592,25.96973 Z M53.24904,25.96973 C53.24904,24.13673 52.30177,22.93164 50.85646,22.93164 C49.43654,22.93164 48.48146,24.16211 48.48146,25.96973 C48.48146,27.79395 49.43654,29.01563 50.85646,29.01563 C52.30178,29.01563 53.249,27.81934 53.249,25.96973 L53.24904,25.96973 Z M65.12453,25.96973 C65.12453,28.78321 63.61818,30.59082 61.34572,30.59082 C60.1711053,30.6522646 59.0646824,30.0370307 58.49709,29.00682 L58.45409,29.00682 L58.45409,33.4912 L56.59569,33.4912 L56.59569,21.44238 L58.39452,21.44238 L58.39452,22.94824 L58.4287,22.94824 C59.0215083,21.9244879 60.1291243,21.3095188 61.31151,21.34765 C63.6094,21.34766 65.12453,23.16406 65.12453,25.96973 Z M63.21389,25.96973 C63.21389,24.13673 62.26662,22.93164 60.82131,22.93164 C59.40139,22.93164 58.44631,24.16211 58.44631,25.96973 C58.44631,27.79395 59.40139,29.01563 60.82131,29.01563 C62.26662,29.01563 63.21389,27.81934 63.21389,25.96973 Z M71.70949,27.03613 C71.84719,28.26758 73.04349,29.07613 74.67824,29.07613 C76.24465,29.07613 77.3716,28.26754 77.3716,27.15718 C77.3716,26.19331 76.69191,25.61618 75.08254,25.22066 L73.47317,24.83296 C71.1929,24.28218 70.1343,23.21577 70.1343,21.4853 C70.1343,19.34272 72.00149,17.87104 74.65188,17.87104 C77.27688,17.87104 79.07571,19.34272 79.13626,21.4853 L77.26026,21.4853 C77.14796,20.24604 76.12354,19.498 74.62647,19.498 C73.1294,19.498 72.10499,20.25484 72.10499,21.3564 C72.10499,22.23433 72.75929,22.75093 74.35987,23.1464 L75.72803,23.48234 C78.27588,24.08488 79.3335,25.10834 79.3335,26.92472 C79.3335,29.24796 77.48389,30.70304 74.5405,30.70304 C71.78659,30.70304 69.92722,29.28214 69.8071,27.03604 L71.70949,27.03613 Z M83.34621,19.2998 L83.34621,21.44238 L85.06789,21.44238 L85.06789,22.91406 L83.34621,22.91406 L83.34621,27.90527 C83.34621,28.68066 83.69094,29.04199 84.44777,29.04199 C84.6521614,29.0384259 84.8562221,29.0240726 85.0591,28.99899 L85.0591,30.46188 C84.7188283,30.5254596 84.3729708,30.5542545 84.02687,30.54782 C82.19387,30.54782 81.47902,29.85934 81.47902,28.10348 L81.47902,22.91406 L80.16262,22.91406 L80.16262,21.44238 L81.479,21.44238 L81.479,19.2998 L83.34621,19.2998 Z M86.064,25.96973 C86.064,23.1211 87.74173,21.33106 90.35795,21.33106 C92.98295,21.33106 94.65287,23.12106 94.65287,25.96973 C94.65287,28.82618 92.99174,30.6084 90.35795,30.6084 C87.72512,30.6084 86.064,28.82617 86.064,25.96973 Z M92.75931,25.96973 C92.75931,24.01563 91.8638,22.86231 90.35794,22.86231 C88.85208,22.86231 87.95657,24.02442 87.95657,25.96973 C87.95657,27.93164 88.85208,29.07618 90.35794,29.07618 C91.8638,29.07618 92.7593,27.93164 92.7593,25.96973 L92.75931,25.96973 Z M96.18508,21.44238 L97.95754,21.44238 L97.95754,22.98338 L98.00054,22.98338 C98.247716,21.9913684 99.1566726,21.3086316 100.17827,21.34764 C100.392434,21.3468922 100.606007,21.3701507 100.81499,21.41698 L100.81499,23.15526 C100.544621,23.0726433 100.26258,23.0347113 99.97999,23.04296 C99.4336382,23.0207954 98.9048909,23.2385347 98.5325815,23.639006 C98.160272,24.0394772 97.9815966,24.5826707 98.04347,25.12596 L98.04347,30.49608 L96.18507,30.49608 L96.18508,21.44238 Z M109.38332,27.83691 C109.13332,29.48046 107.53273,30.60839 105.48488,30.60839 C102.85109,30.60839 101.21633,28.84374 101.21633,26.01269 C101.21633,23.17285 102.85988,21.33105 105.40676,21.33105 C107.91164,21.33105 109.48684,23.05175 109.48684,25.79687 L109.48684,26.43359 L103.09231,26.43359 L103.09231,26.54589 C103.032607,27.2199216 103.265352,27.8871194 103.73134,28.3777699 C104.197328,28.8684204 104.851647,29.1352333 105.52786,29.11034 C106.429702,29.1948396 107.279963,28.6769777 107.61868,27.8369 L109.38332,27.83691 Z M103.101082,25.13477 L107.62746,25.13476 C107.661185,24.5290975 107.440717,23.9368231 107.01917,23.5006315 C106.597624,23.06444 106.013221,22.8238804 105.40676,22.83691 C104.795502,22.8332622 104.208111,23.0739346 103.775146,23.5054332 C103.34218,23.9369319 103.099516,24.5235029 103.101082,25.13477 Z" id="App-Store" fill="#000000" fill-rule="nonzero"></path>
        <path d="M24.99671,19.88935 C24.9988493,21.885287 26.1941431,23.6865494 28.03242,24.46405 C27.6788802,25.6125388 27.1459669,26.6979035 26.45342,27.67994 C25.52334,29.07122 24.54819,30.43045 23.00042,30.45557 C21.4965,30.49028 20.99109,29.57051 19.26615,29.57051 C17.52506,29.57051 16.98635,30.43045 15.54395,30.49028 C14.06994,30.54487 12.94345,29.00536 11.97957,27.62713 C10.05306,24.81252 8.55295,19.69513 10.56406,16.21313 C11.50847,14.5160473 13.2742791,13.439145 15.21543,13.37643 C16.69077,13.34608 18.06083,14.3728 18.9679,14.3728 C19.85777,14.3728 21.55066,13.14458 23.2969,13.32788 C24.9566895,13.3798105 26.4948204,14.211346 27.44729,15.57164 C25.94431,16.4956559 25.0194402,18.1251965 24.99671,19.88935 Z M22.15611,11.47681 C21.3373661,12.4951352 20.0967983,13.0816894 18.79022,13.06824 C18.7071256,11.7914154 19.134985,10.5339261 19.97956,9.57274 C20.8348645,8.59853425 22.0258135,7.98233493 23.31511,7.84692 C23.4157857,9.16159511 23.000021,10.4637352 22.15611,11.47681 Z" id="Apple-Logo" fill="#000000" fill-rule="nonzero"></path>
        <path d="M37.82619,8.731 C38.6151366,8.67438418 39.3878923,8.97454743 39.9317613,9.54887182 C40.4756303,10.1231962 40.7332859,10.9111448 40.63381,11.69584 C40.63381,13.60209 39.60354,14.69784 37.82619,14.69784 L35.67092,14.69784 L35.67092,8.731 L37.82619,8.731 Z M36.59767,13.854 L37.72267,13.854 C38.2864919,13.887702 38.8354865,13.665559 39.2172185,13.2492518 C39.5989505,12.8329446 39.7727796,12.2667944 39.69044,11.708 C39.766789,11.1515245 39.5904566,10.5900462 39.2096711,10.177134 C38.8288856,9.76422175 38.2834957,9.5430863 37.72267,9.57421 L36.59767,9.57421 L36.59767,13.854 Z M41.68068,12.44434 C41.6034671,11.6372251 41.9904837,10.8561119 42.6794159,10.4285974 C43.3683482,10.0010828 44.2400818,10.0010828 44.9290141,10.4285974 C45.6179463,10.8561119 46.0049629,11.6372251 45.92775,12.44434 C46.0064319,13.2523223 45.6197687,14.0349504 44.9302255,14.4633853 C44.2406824,14.8918202 43.3677476,14.8918202 42.6782045,14.4633853 C41.9886613,14.0349504 41.6019981,13.2523223 41.68068,12.44434 Z M45.01368,12.44434 C45.01368,11.46827 44.5752,10.89747 43.80568,10.89747 C43.03322,10.89747 42.59868,11.46827 42.59868,12.44435 C42.59868,13.42824 43.03325,13.99464 43.80568,13.99464 C44.57521,13.99463 45.01369,13.42432 45.01369,12.44434 Z M51.57326,14.69775 L50.65139,14.69775 L49.72073,11.38134 L49.65042,11.38134 L48.72366,14.69775 L47.81057,14.69775 L46.56936,10.19482 L47.47073,10.19482 L48.27737,13.63082 L48.34378,13.63082 L49.26956,10.19482 L50.1221,10.19482 L51.04788,13.63082 L51.11819,13.63082 L51.92092,10.19482 L52.80959,10.19482 L51.57326,14.69775 Z M53.85354,10.19482 L54.709,10.19482 L54.709,10.91015 L54.77541,10.91015 C55.0063449,10.3834779 55.5459729,10.0613075 56.11916,10.1079 C56.5629768,10.0745318 56.9978859,10.2447899 57.3010908,10.5706021 C57.6042957,10.8964142 57.7428931,11.3424238 57.67775,11.7827 L57.67775,14.6977 L56.78908,14.6977 L56.78908,12.00586 C56.78908,11.28223 56.47463,10.92236 55.8174,10.92236 C55.5163658,10.9083391 55.2242202,11.0264826 55.0175546,11.2458168 C54.810889,11.465151 54.710315,11.763801 54.7422,12.06347 L54.7422,14.69775 L53.85353,14.69775 L53.85354,10.19482 Z M59.09377,8.437 L60.0626672,8.437 L60.0626672,14.69774 L59.09377,14.69774 L59.09377,8.437 Z M61.21779,12.44434 C61.1405771,11.6372251 61.5275937,10.8561119 62.2165259,10.4285974 C62.9054582,10.0010828 63.7771918,10.0010828 64.4661241,10.4285974 C65.1550563,10.8561119 65.5420729,11.6372251 65.46486,12.44434 C65.5435419,13.2523223 65.1568787,14.0349504 64.4673355,14.4633853 C63.7777924,14.8918202 62.9048576,14.8918202 62.2153145,14.4633853 C61.5257713,14.0349504 61.1391081,13.2523223 61.21779,12.44434 Z M64.55079,12.44434 C64.55079,11.46827 64.11231,10.89747 63.34279,10.89747 C62.57033,10.89747 62.13579,11.46827 62.13579,12.44435 C62.13579,13.42824 62.57036,13.99464 63.34279,13.99464 C64.11232,13.99463 64.5508,13.42432 64.5508,12.44434 Z M66.40041,13.42432 C66.40041,12.61377 67.00393,12.14649 68.07521,12.08008 L69.29494,12.00977 L69.29494,11.6211 C69.29494,11.14551 68.98049,10.87696 68.37307,10.87696 C67.87698,10.87696 67.53323,11.05909 67.43459,11.37745 L66.57424,11.37745 C66.66506,10.60401 67.3926,10.10792 68.41408,10.10792 C69.54299,10.10792 70.17971,10.66992 70.17971,11.6211 L70.17971,14.69776 L69.32424,14.69776 L69.32424,14.06495 L69.25393,14.06495 C68.9633786,14.5270763 68.4466836,14.7971632 67.90139,14.77195 C67.5191261,14.8117118 67.1378811,14.6879107 66.8519058,14.4311524 C66.5659305,14.1743942 66.4019161,13.8086433 66.40041,13.42432 Z M69.29494,13.03955 L69.29494,12.66309 L68.19533,12.7334 C67.57521,12.7749 67.29396,12.98584 67.29396,13.38281 C67.29396,13.78808 67.64552,14.02392 68.12896,14.02392 C68.4151461,14.0528899 68.7008364,13.9644751 68.9206304,13.7789156 C69.1404244,13.5933561 69.2755016,13.3265411 69.29494,13.03955 Z M71.34768,12.44434 C71.34768,11.02149 72.07913,10.12012 73.21682,10.12012 C73.7912968,10.0936501 74.3293475,10.4014729 74.59768,10.91012 L74.66409,10.91012 L74.66409,8.437 L75.55276,8.437 L75.55276,14.69774 L74.7012,14.69774 L74.7012,13.98631 L74.63089,13.98631 C74.3422742,14.490737 73.7975945,14.7933565 73.21683,14.77195 C72.07131,14.772 71.34768,13.87061 71.34768,12.44434 Z M72.26568,12.44434 C72.26568,13.39942 72.71588,13.97413 73.46881,13.97413 C74.21781,13.97413 74.68072,13.39113 74.68072,12.44825 C74.68072,11.50977 74.21295,10.91846 73.46881,10.91846 C72.72072,10.91846 72.26564,11.49707 72.26564,12.44434 L72.26568,12.44434 Z M79.22951,12.44434 C79.1523564,11.6371722 79.539434,10.8560394 80.2284174,10.4285182 C80.9174008,10.000997 81.7891792,10.000997 82.4781626,10.4285182 C83.167146,10.8560394 83.5542236,11.6371722 83.47707,12.44434 C83.555652,13.2523512 83.1689179,14.0349572 82.4793405,14.4633732 C81.7897632,14.8917893 80.9168168,14.8917893 80.2272395,14.4633732 C79.5376621,14.0349572 79.150928,13.2523512 79.22951,12.44434 Z M82.56251,12.44434 C82.56251,11.46827 82.12403,10.89747 81.35451,10.89747 C80.58205,10.89747 80.14751,11.46827 80.14751,12.44435 C80.14751,13.42824 80.58208,13.99464 81.35451,13.99464 C82.124,13.99463 82.56252,13.42432 82.56252,12.44434 L82.56251,12.44434 Z M84.66945,10.19482 L85.52492,10.19482 L85.52492,10.91015 L85.59133,10.91015 C85.8222649,10.3834779 86.3618929,10.0613075 86.93508,10.1079 C87.3788968,10.0745318 87.8138059,10.2447899 88.1170108,10.5706021 C88.4202157,10.8964142 88.5588131,11.3424238 88.49367,11.7827 L88.49367,14.6977 L87.605,14.6977 L87.605,12.00586 C87.605,11.28223 87.29055,10.92236 86.63332,10.92236 C86.3322858,10.9083391 86.0401402,11.0264826 85.8334746,11.2458168 C85.626809,11.465151 85.526235,11.763801 85.55812,12.06347 L85.55812,14.69775 L84.66945,14.69775 L84.66945,10.19482 Z M93.51516,9.07373 L93.51516,10.21533 L94.49075,10.21533 L94.49075,10.96387 L93.51516,10.96387 L93.51516,13.2793 C93.51516,13.75098 93.7095,13.95752 94.15188,13.95752 C94.2651356,13.9571575 94.3782775,13.9503097 94.49075,13.93701 L94.49075,14.67724 C94.3311595,14.7057907 94.1694656,14.72098 94.00735,14.72265 C93.01907,14.72265 92.62551,14.37499 92.62551,13.50683 L92.62551,10.96383 L91.91067,10.96383 L91.91067,10.21529 L92.62551,10.21529 L92.62551,9.07373 L93.51516,9.07373 Z M95.70461,8.437 L96.58547,8.437 L96.58547,10.91845 L96.65578,10.91845 C96.8978078,10.3871686 97.4468801,10.0645875 98.02878,10.11181 C98.4700766,10.0877973 98.8990983,10.2618037 99.1989893,10.5864339 C99.4988802,10.911064 99.6384049,11.3525056 99.57956,11.79052 L99.57956,14.69775 L98.69,14.69775 L98.69,12.00975 C98.69,11.29051 98.355,10.92625 97.72711,10.92625 C97.417939,10.9008937 97.1133391,11.013291 96.8947423,11.2333935 C96.6761456,11.453496 96.5658419,11.7588603 96.59332,12.06785 L96.59332,14.69773 L95.70465,14.69773 L95.70461,8.437 Z M104.76125,13.48193 C104.512057,14.3313095 103.690099,14.880103 102.81008,14.78466 C102.209644,14.8005102 101.632591,14.5516307 101.232028,14.1040552 C100.831465,13.6564796 100.647886,13.0554559 100.73,12.46045 C100.650067,11.8637905 100.832958,11.2618037 101.231291,10.810447 C101.629623,10.3590902 102.204202,10.1027768 102.80617,10.10791 C104.0591,10.10791 104.81496,10.96391 104.81496,12.37791 L104.81496,12.688 L101.63527,12.688 L101.63527,12.7378 C101.607132,13.0719401 101.721251,13.4024478 101.949561,13.6480407 C102.177871,13.8936336 102.499188,14.0315239 102.83449,14.0278 C103.269262,14.0799947 103.692483,13.864333 103.90578,13.4819 L104.76125,13.48193 Z M101.63525,12.03076 L103.90966,12.03076 C103.932313,11.7251604 103.824858,11.4242051 103.613777,11.2020591 C103.402695,10.9799131 103.107617,10.8572362 102.80126,10.86426 C102.490752,10.8603589 102.191828,10.9820212 101.972296,11.2016489 C101.752765,11.4212765 101.631233,11.7202537 101.63527,12.03076 L101.63525,12.03076 Z" id="Download-one-the" fill="#000000" fill-rule="nonzero"></path>
    </g>
</svg>

<svg width="120" height="40" xmlns="http://www.w3.org/2000/svg"><g fill="none" fill-rule="evenodd"><path d="M8.563.5c-2.64 0-3.755.216-4.91.833a5.57 5.57 0 0 0-2.32 2.32C.716 4.808.5 5.923.5 8.563v22.874c0 2.64.216 3.755.833 4.91a5.57 5.57 0 0 0 2.32 2.32c1.155.617 2.27.833 4.91.833h102.874c2.64 0 3.755-.216 4.91-.833a5.57 5.57 0 0 0 2.32-2.32c.617-1.155.833-2.27.833-4.91V8.563c0-2.64-.216-3.755-.833-4.91a5.57 5.57 0 0 0-2.32-2.32c-1.155-.617-2.27-.833-4.91-.833H8.563z" stroke="#000" fill="#FFF"/><path d="M42.302 27.14h-4.734l-1.136 3.356h-2.005l4.483-12.418h2.083l4.484 12.418h-2.04l-1.135-3.356zm-4.243-1.55h3.752l-1.85-5.446h-.052l-1.85 5.447zm17.1.38c0 2.813-1.506 4.62-3.778 4.62a3.07 3.07 0 0 1-2.849-1.583h-.043v4.484h-1.858V21.442h1.799v1.506h.034a3.212 3.212 0 0 1 2.883-1.6c2.298 0 3.812 1.816 3.812 4.622zm-1.91 0c0-1.833-.947-3.038-2.393-3.038-1.42 0-2.375 1.23-2.375 3.038 0 1.824.956 3.046 2.375 3.046 1.446 0 2.393-1.197 2.393-3.046zm11.876 0c0 2.813-1.507 4.62-3.78 4.62a3.07 3.07 0 0 1-2.848-1.583h-.043v4.484h-1.858V21.442h1.799v1.506h.034a3.212 3.212 0 0 1 2.883-1.6c2.297 0 3.813 1.816 3.813 4.622zm-1.911 0c0-1.833-.947-3.038-2.393-3.038-1.42 0-2.375 1.23-2.375 3.038 0 1.824.955 3.046 2.375 3.046 1.446 0 2.393-1.197 2.393-3.046zm8.495 1.066c.138 1.232 1.334 2.04 2.97 2.04 1.566 0 2.693-.808 2.693-1.919 0-.964-.68-1.54-2.29-1.936l-1.609-.388c-2.28-.55-3.339-1.617-3.339-3.348 0-2.142 1.867-3.614 4.518-3.614 2.625 0 4.424 1.472 4.484 3.614H77.26c-.112-1.239-1.136-1.987-2.634-1.987-1.497 0-2.521.757-2.521 1.858 0 .878.654 1.395 2.255 1.79l1.368.336c2.548.603 3.606 1.626 3.606 3.443 0 2.323-1.85 3.778-4.794 3.778-2.753 0-4.613-1.42-4.733-3.667h1.902zM83.346 19.3v2.142h1.722v1.472h-1.722v4.991c0 .776.345 1.137 1.102 1.137.204-.004.408-.018.611-.043v1.463c-.34.063-.686.092-1.032.086-1.833 0-2.548-.689-2.548-2.445v-5.189h-1.316v-1.472h1.316V19.3h1.867zm2.718 6.67c0-2.849 1.678-4.639 4.294-4.639 2.625 0 4.295 1.79 4.295 4.639 0 2.856-1.661 4.638-4.295 4.638-2.633 0-4.294-1.782-4.294-4.638zm6.695 0c0-1.954-.895-3.108-2.401-3.108-1.506 0-2.401 1.162-2.401 3.108 0 1.962.895 3.106 2.4 3.106 1.507 0 2.402-1.144 2.402-3.106zm3.426-4.528h1.773v1.541H98a2.16 2.16 0 0 1 2.177-1.635c.214-.001.428.022.637.069v1.738a2.598 2.598 0 0 0-.835-.112 1.873 1.873 0 0 0-1.937 2.083v5.37h-1.858v-9.054zm13.198 6.395c-.25 1.643-1.85 2.771-3.898 2.771-2.634 0-4.269-1.764-4.269-4.595 0-2.84 1.644-4.682 4.19-4.682 2.506 0 4.08 1.72 4.08 4.466v.637h-6.394v.112a2.358 2.358 0 0 0 2.436 2.564 2.048 2.048 0 0 0 2.09-1.273h1.765zm-6.282-2.702h4.526a2.177 2.177 0 0 0-2.22-2.298 2.292 2.292 0 0 0-2.306 2.298zM24.997 19.89a4.973 4.973 0 0 0 3.035 4.574 11.4 11.4 0 0 1-1.579 3.216c-.93 1.391-1.905 2.75-3.453 2.776-1.503.034-2.009-.885-3.734-.885-1.74 0-2.28.86-3.722.92-1.474.054-2.6-1.486-3.564-2.864-1.927-2.814-3.427-7.932-1.416-11.414a5.527 5.527 0 0 1 4.651-2.837c1.476-.03 2.846.997 3.753.997.89 0 2.583-1.228 4.329-1.045a5.268 5.268 0 0 1 4.15 2.244 5.146 5.146 0 0 0-2.45 4.317zm-2.84-8.413a4.263 4.263 0 0 1-3.367 1.591 4.821 4.821 0 0 1 1.19-3.495 5.155 5.155 0 0 1 3.335-1.726 5.067 5.067 0 0 1-1.159 3.63zM37.826 8.731a2.64 2.64 0 0 1 2.808 2.965c0 1.906-1.03 3.002-2.808 3.002h-2.155V8.73h2.155zm-1.228 5.123h1.125a1.876 1.876 0 0 0 1.967-2.146 1.881 1.881 0 0 0-1.967-2.134h-1.125v4.28zm5.083-1.41a2.133 2.133 0 1 1 4.247 0 2.134 2.134 0 1 1-4.247 0zm3.333 0c0-.976-.439-1.547-1.208-1.547-.773 0-1.207.571-1.207 1.547 0 .984.434 1.55 1.207 1.55.77 0 1.208-.57 1.208-1.55zm6.56 2.254h-.923l-.93-3.317h-.07l-.927 3.317h-.913l-1.242-4.503h.902l.806 3.436h.067l.926-3.436h.852l.926 3.436h.07l.803-3.436h.889l-1.237 4.503zm2.28-4.503h.855v.715h.066c.231-.527.771-.849 1.344-.802a1.465 1.465 0 0 1 1.559 1.675v2.915h-.889v-2.692c0-.724-.314-1.084-.972-1.084a1.033 1.033 0 0 0-1.075 1.141v2.635h-.888v-4.503zm5.24-1.758h.969v6.26h-.97v-6.26zm2.124 4.007a2.133 2.133 0 1 1 4.247 0 2.134 2.134 0 1 1-4.247 0zm3.333 0c0-.976-.439-1.547-1.208-1.547-.773 0-1.207.571-1.207 1.547 0 .984.434 1.55 1.207 1.55.77 0 1.208-.57 1.208-1.55zm1.85.98c0-.81.603-1.278 1.674-1.344l1.22-.07v-.389c0-.475-.315-.744-.922-.744-.496 0-.84.182-.938.5h-.86c.09-.773.818-1.27 1.84-1.27 1.128 0 1.765.563 1.765 1.514v3.077h-.856v-.633h-.07c-.29.462-.807.732-1.353.707a1.36 1.36 0 0 1-1.5-1.348zm2.894-.384v-.377l-1.1.07c-.62.042-.901.253-.901.65 0 .405.352.64.835.64a1.061 1.061 0 0 0 1.166-.983zm2.053-.596c0-1.423.731-2.324 1.869-2.324a1.484 1.484 0 0 1 1.38.79h.067V8.437h.889v6.26H74.7v-.71h-.07a1.563 1.563 0 0 1-1.414.785c-1.146 0-1.87-.901-1.87-2.328zm.918 0c0 .955.45 1.53 1.203 1.53.749 0 1.212-.583 1.212-1.526 0-.938-.468-1.53-1.212-1.53-.748 0-1.203.58-1.203 1.526zm6.964 0a2.133 2.133 0 1 1 4.247 0 2.134 2.134 0 1 1-4.247 0zm3.333 0c0-.976-.439-1.547-1.208-1.547-.773 0-1.207.571-1.207 1.547 0 .984.434 1.55 1.207 1.55.769 0 1.208-.57 1.208-1.55zm2.106-2.25h.856v.716h.066c.231-.527.77-.849 1.344-.802a1.465 1.465 0 0 1 1.559 1.675v2.915h-.889v-2.692c0-.724-.314-1.084-.972-1.084a1.033 1.033 0 0 0-1.075 1.141v2.635h-.889v-4.503zm8.846-1.12v1.141h.976v.749h-.976v2.315c0 .472.195.679.637.679.113 0 .226-.008.339-.021v.74c-.16.029-.322.044-.484.046-.988 0-1.381-.348-1.381-1.216v-2.543h-.715v-.749h.715V9.074h.89zm2.19-.637h.88v2.481h.07a1.386 1.386 0 0 1 1.374-.806 1.483 1.483 0 0 1 1.55 1.679v2.907h-.889V12.01c0-.72-.335-1.084-.963-1.084a1.052 1.052 0 0 0-1.134 1.142v2.63h-.888V8.437zm9.056 5.045a1.828 1.828 0 0 1-1.95 1.303 2.045 2.045 0 0 1-2.081-2.325 2.077 2.077 0 0 1 2.076-2.352c1.253 0 2.009.856 2.009 2.27v.31h-3.18v.05a1.19 1.19 0 0 0 1.2 1.29 1.08 1.08 0 0 0 1.07-.546h.856zm-3.126-1.451h2.275a1.086 1.086 0 0 0-1.109-1.167 1.152 1.152 0 0 0-1.166 1.167z" fill="#000" fill-rule="nonzero"/></g></svg>
